X: 24989
T: Maid Of The House, The
R: reel
M: 4/4
K: Dmajor
AD (3DDD ADFD|DEFA BAGF|EFGA BE (3EEE|EFGA BcdB|
AD (3DDD ADFD|DEFA BAGF|EFGA BABd|1 AGFE D2 dB:|2 AGFE D2 FG||
Ad (3ddd fd (3ddd|Addc BAGF|Ee (3eee ge (3eee|Beed cABc|
d2 dB c2 cA|BcdB AGFD|EFGA BcdB|1 AGFE D2 FG:|2 AGFE D4||

